svgs/sharp-solid/heart-circle-plus.svg

<svg xmlns="http://www.w3.org/2000/svg" viewBox="0 0 576 512"><!--! Font Awesome Pro 6.6.0 by @fontawesome - https://fontawesome.com License - https://fontawesome.com/license (Commercial License) Copyright 2024 Fonticons, Inc. --><path d="M64 288L39.8 263.8C14.3 238.3 0 203.8 0 167.8C0 92.8 60.8 32 135.8 32c36 0 70.5 14.3 96 39.8L256 96l24.2-24.2c25.5-25.5 60-39.8 96-39.8C451.2 32 512 92.8 512 167.8c0 13.8-2.1 27.4-6.2 40.4C483.4 197.8 458.4 192 432 192c-97.2 0-176 78.8-176 176c0 32.2 8.6 62.3 23.7 88.3L256 480 64 288zm368-64a144 144 0 1 1 0 288 144 144 0 1 1 0-288zm16 80l0-16-32 0 0 16 0 48-48 0-16 0 0 32 16 0 48 0 0 48 0 16 32 0 0-16 0-48 48 0 16 0 0-32-16 0-48 0 0-48z"/></svg>

<svg xmlns="http://www.w3.org/2000/svg" viewBox="0 0 576 512"><!--! Font Awesome Pro 6.4.2 by @fontawesome - https://fontawesome.com License - https://fontawesome.com/license (Commercial License) Copyright 2023 Fonticons, Inc. --><path d="M64 288L39.8 263.8C14.3 238.3 0 203.8 0 167.8C0 92.8 60.8 32 135.8 32c36 0 70.5 14.3 96 39.8L256 96l24.2-24.2c25.5-25.5 60-39.8 96-39.8C451.2 32 512 92.8 512 167.8c0 13.8-2.1 27.4-6.2 40.4C483.4 197.8 458.4 192 432 192c-97.2 0-176 78.8-176 176c0 32.2 8.6 62.3 23.7 88.3L256 480 64 288zm368-64a144 144 0 1 1 0 288 144 144 0 1 1 0-288zm16 80V288H416v16 48H368 352v32h16 48v48 16h32V432 384h48 16V352H496 448V304z"/></svg>
